src/symbols/capacitor.svg

<svg height="20mm" viewBox="0 0 20 20" width="20mm" xmlns="http://www.w3.org/2000/svg" xmlns:xlink="http://www.w3.org/1999/xlink"><marker id="a" orient="auto" overflow="visible" refX="0.0" refY="0.0"><path d="m-2.5-1c0 2.76-2.24 5-5 5s-5-2.24-5-5 2.24-5 5-5 5 2.24 5 5z" fill="#00f" fill-rule="evenodd" stroke="#00f" stroke-width="1pt" transform="matrix(.4 0 0 .4 2.96 .4)"/></marker><marker id="b" orient="auto" overflow="visible" refX="0.0" refY="0.0"><path d="m-2.5-1c0 2.76-2.24 5-5 5s-5-2.24-5-5 2.24-5 5-5 5 2.24 5 5z" fill="#00f" fill-rule="evenodd" stroke="#00f" stroke-width="1pt" transform="matrix(.4 0 0 .4 2.96 .4)"/></marker><g fill="none"><path d="m7.4999998 9.9999995h5.0000002" stroke="#f00" stroke-width=".1"/><path d="m9.9999995 7.4999997v5.0000003" stroke="#f00" stroke-width=".1"/><path d="m9.2499999 5.9999998v8.0000002" stroke="#000" stroke-width=".6"/></g><path d="m10.75 5.9999998v7.9999992" fill="#00f" stroke="#000" stroke-width=".6"/><g fill="none" stroke="#00f" stroke-width=".2"><path d="m4.9999997 9.9999995h4.2500003" marker-start="url(#b)"/><path d="m14.999999 9.9999995h-4.249999" marker-start="url(#a)"/></g></svg>

<?xml version="1.0" encoding="UTF-8" standalone="no"?>
<svg
   xmlns:dc="http://purl.org/dc/elements/1.1/"
   xmlns:cc="http://creativecommons.org/ns#"
   xmlns:rdf="http://www.w3.org/1999/02/22-rdf-syntax-ns#"
   xmlns:svg="http://www.w3.org/2000/svg"
   xmlns="http://www.w3.org/2000/svg"
   width="20mm"
   height="20mm"
   viewBox="0 0 20 20"
   version="1.1"
   id="svg5159">
  <metadata
     id="metadata13">
    <rdf:RDF>
      <cc:Work
         rdf:about="">
        <dc:format>image/svg+xml</dc:format>
        <dc:type
           rdf:resource="http://purl.org/dc/dcmitype/StillImage" />
        <dc:title></dc:title>
      </cc:Work>
    </rdf:RDF>
  </metadata>
  <defs
     id="defs11">
    <marker
       orient="auto"
       refY="0.0"
       refX="0.0"
       id="marker1116"
       style="overflow:visible">
      <path
         id="path1114"
         d="M -2.5,-1.0 C -2.5,1.7600000 -4.7400000,4.0 -7.5,4.0 C -10.260000,4.0 -12.5,1.7600000 -12.5,-1.0 C -12.5,-3.7600000 -10.260000,-6.0 -7.5,-6.0 C -4.7400000,-6.0 -2.5,-3.7600000 -2.5,-1.0 z "
         style="fill-rule:evenodd;stroke:#0000ff;stroke-width:1pt;stroke-opacity:1;fill:#0000ff;fill-opacity:1"
         transform="scale(0.4) translate(7.4, 1)" />
    </marker>
    <marker
       orient="auto"
       refY="0.0"
       refX="0.0"
       id="DotM"
       style="overflow:visible">
      <path
         id="path908"
         d="M -2.5,-1.0 C -2.5,1.7600000 -4.7400000,4.0 -7.5,4.0 C -10.260000,4.0 -12.5,1.7600000 -12.5,-1.0 C -12.5,-3.7600000 -10.260000,-6.0 -7.5,-6.0 C -4.7400000,-6.0 -2.5,-3.7600000 -2.5,-1.0 z "
         style="fill-rule:evenodd;stroke:#0000ff;stroke-width:1pt;stroke-opacity:1;fill:#0000ff;fill-opacity:1"
         transform="scale(0.4) translate(7.4, 1)" />
    </marker>
  </defs>
  <path
     id="ch"
     d="M 7.4999998,9.9999995 H 12.5"
     style="fill:none;stroke:#ff0000;stroke-width:0.1;stroke-linecap:butt;stroke-linejoin:miter;stroke-miterlimit:4;stroke-dasharray:none;stroke-opacity:1" />
  <path
     id="cv"
     d="M 9.9999995,7.4999997 V 12.5"
     style="fill:none;stroke:#ff0000;stroke-width:0.1;stroke-linecap:butt;stroke-linejoin:miter;stroke-miterlimit:4;stroke-dasharray:none;stroke-opacity:1" />
  <path
     id="path887"
     d="M 9.2499999,5.9999998 V 14"
     style="opacity:1;fill:none;stroke:#000000;stroke-width:0.6;stroke-linecap:butt;stroke-linejoin:miter;stroke-miterlimit:4;stroke-dasharray:none;stroke-opacity:1;stop-opacity:1" />
  <path
     id="path889"
     d="M 10.75,5.9999998 V 13.999999"
     style="opacity:1;fill:#0000ff;stroke:#000000;stroke-width:0.6;stroke-linecap:butt;stroke-linejoin:miter;stroke-miterlimit:4;stroke-dasharray:none;stroke-opacity:1;stop-opacity:1" />
  <path
     id="pin1"
     d="M 4.9999997,9.9999995 H 9.25"
     style="fill:none;stroke:#0000ff;stroke-width:0.19999999;stroke-linecap:butt;stroke-linejoin:miter;stroke-opacity:1;stroke-miterlimit:4;stroke-dasharray:none;marker-start:url(#DotM)" />
  <path
     id="pin2"
     d="M 14.999999,9.9999995 H 10.75"
     style="fill:none;stroke:#0000ff;stroke-width:0.2;stroke-linecap:butt;stroke-linejoin:miter;stroke-opacity:1;stroke-miterlimit:4;stroke-dasharray:none;marker-start:url(#marker1116)" />
</svg>
